!!!COM:	Bach, Johann Sebastian
!!!CDT:	1685/02/21/-1750/07/28/
!!!OTL@@DE:	Herzlich lieb hab ich dich, o Herr
!!!SCT:	BWV 174/5
!!!PC#:	58
!!!AGN:	chorale
**kern	**kern	**kern	**kern
*ICvox	*ICvox	*ICvox	*ICvox
*Ibass	*Itenor	*Ialto	*Isoprn
*I"Bass	*I"Tenor	*I"Alto	*I"Soprano
*>[A,A,B]	*>[A,A,B]	*>[A,A,B]	*>[A,A,B]
*>norep[A,B]	*>norep[A,B]	*>norep[A,B]	*>norep[A,B]
*>A	*>A	*>A	*>A
*clefF4	*clefGv2	*clefG2	*clefG2
*k[f#c#]	*k[f#c#]	*k[f#c#]	*k[f#c#]
*D:	*D:	*D:	*D:
*M4/4	*M4/4	*M4/4	*M4/4
*met(c)	*met(c)	*met(c)	*met(c)
*MM100	*MM100	*MM100	*MM100
4D	8AL	4f#	4dd
.	8BJ	.	.
=1	=1	=1	=1
4AA	4c#	8eL	4cc#
.	.	8f#J	.
4BB	4d	8gL	4b
.	.	8f#J	.
4C#	8eL	4e	4a
.	8AJ	.	.
4D	4A	4d	8gL
.	.	.	8f#J
=2	=2	=2	=2
8GGL	4A	4d	4b
8AAJ	.	.	.
8BBL	4G	4d	4b
8C#J	.	.	.
4D;	4F#;	4d;	4a;
4BB	8F#L	8f#L	4dd
.	8G#J	8e#J	.
=3	=3	=3	=3
4F#	4A	8f#L	4cc#
.	.	8enXJ	.
4GnX	4B	8dL	4b
.	.	8eJ	.
4A	4c#	8f#L	4a
.	.	8eJ	.
8BL	8dL	8dL	8gL
8AJ	8c#J	8f#J	8f#J
=4	=4	=4	=4
4G#	4B	4f#	4b
4C#	4c#	4e#	4b
4F#;	4c#;	4f#;	4a;
4D	8dL	8f#L	4a
.	8c#J	8eJ	.
=5	=5	=5	=5
4G	8BL	8dL	4b
.	8gJ	8bJ	.
4A	8f#L	8aL	4cc#
.	8eJ	8gJ	.
4B	4d	8f#L	8ddL
.	.	8gJ	8eeJ
8AL	4d	8aL	4ff#
8GJ	.	8bJ	.
=6	=6	=6	=6
4A	4d	8eL	8eeL
.	.	8f#J	8ddJ
4AA	4c#	4g	4ee
4D;	4A;	4f#;	4dd;
=:|!	=:|!	=:|!	=:|!
*>B	*>B	*>B	*>B
8dL	8f#L	4a	4dd
8c#J	8eJ	.	.
=7	=7	=7	=7
4B	4d	8aL	4dd
.	.	8gJ	.
4A#	4c#	8gL	4ee
.	.	8f#J	.
8BL	8BL	4f#	4dd
8AJ	8c#J	.	.
8G#L	4d	4e	8bL
8F#J	.	.	8cc#J
=8	=8	=8	=8
8EL	8G#L	4e	4dd
8F#J	8AJ	.	.
8G#XL	4B	4e	4dd
8EJ	.	.	.
4A;	4A;	4e;	4cc#;
8AL	4A	4e	4cc#
8GJ	.	.	.
=9	=9	=9	=9
8F#L	4A	4f#	4dd
8EJ	.	.	.
8DL	4A	4g	4ee
8C#J	.	.	.
4D	4A	4f#	4dd
4E	4G	4e	8bL
.	.	.	8cc#J
=10	=10	=10	=10
8BBL	4F#	8dL	4dd
8C#J	.	8eJ	.
8DL	4B	4f#	4dd
8EJ	.	.	.
4F#;	4A#;	4f#;	4cc#;
4D#	4B	4f#	4ff#
=11	=11	=11	=11
4E	4B	4e	8ggL
.	.	.	8ff#J
8AnXL	4c#	4e	4ee
8GJ	.	.	.
4F#	4c#	8aL	8ff#L
.	.	8gJ	8eeJ
8BL	8dnXL	4f#	4dd
8AJ	8c#J	.	.
=12	=12	=12	=12
4G#	4B	4e	4dd
4A	4A	4e	4cc#
4D;	4A;	4f#;	4dd;
4E	4e	4g	4cc#
=13	=13	=13	=13
8F#L	8AL	4f#	4dd
8G#J	8BJ	.	.
4A	4c#	8eL	4cc#
.	.	8f#J	.
4E#	4d	4g#	4b
8F#L	4c#	4f#	4a
8EJ	.	.	.
=14	=14	=14	=14
4D#	4B	4f#	4a
4E	4B	4e	4g#
4AA;	4c#;	4e;	4a;
4D	8AL	4dd	4ff#
.	8BJ	.	.
=15	=15	=15	=15
4C#	4c#	4a#	4ee
4BB	4F#	4b	4dd
4F#;	4f#;	4a#;	4cc#;
4A#	8f#L	4cc#	4ff#
.	8eJ	.	.
=16	=16	=16	=16
4B	4d	4b	8ggL
.	.	.	8ff#J
4c#	4e	8bL	4ee
.	.	8anXJ	.
4d	4d	4a	8ff#L
.	.	.	8eeJ
4F#	8dL	4a	4dd
.	8c#J	.	.
=17	=17	=17	=17
4G#	4B	4e	4dd
4A#	4c#	4f#	4cc#
4B;	4B;	4f#;	4dd;
4F#	8dL	4anX	4dd
.	8cJ	.	.
=18	=18	=18	=18
8GnXL	4B	4a	4dd
8AnXJ	.	.	.
4B	4B	8gL	4dd
.	.	8f#J	.
4C#	8BL	4g	4ee
.	8AJ	.	.
4D	4A	4f#	4dd
=19	=19	=19	=19
4A	4A	8eL	4dd
.	.	8dJ	.
4AA	4A	4e	4cc#
4D;	4A;	4f#;	4dd;
==	==	==	==
*-	*-	*-	*-
!!!hum2abc: -Q ''
!!!title: @{PC#}. @{OTL@@DE}
!!!YOR1: 371 vierstimmige Choralges&auml;nge von Johann Sebastian Bach, 
!!!YOR2: 4th ed. by Alfred D&ouml;rffel (Leipzig: Breitkopf und H&auml;rtel, 
!!!YOR2: c.1875). 178 pp. Plate "V.A.10".  reprint: J.S. Bach, 371 Four-Part 
!!!YOR4: Chorales (New York: Associated Music Publishers, Inc., c.1940).
!!!SMS: B&H, 4th ed, Alfred D&ouml;rffel, c.1875, plate V.A.10
!!!EED:  Craig Stuart Sapp
!!!EEV:  2009/05/22
